X:1
T:Morgenlied
T:Immanuel Faißt
T:Friedrich Schiller
T:Morgenlied
T:CPDL   —   Creative Commons Attribution Non Commercial 3.0
T:CPDL   —   Creative Commons Attribution Non Commercial 3.0
T:CPDL   —   Creative Commons Attribution Non Commercial 3.0
T:CPDL   —   Creative Commons Attribution Non Commercial 3.0
C:Immanuel Faißt
Z:Friedrich Schiller
Z:CPDL   —   Creative Commons Attribution Non Commercial 3.0
%%score [ ( 1 2 ) 3 4 ]
L:1/8
Q:1/4=90
M:4/4
K:C
V:1 treble nm="S"
V:2 treble 
V:3 treble nm="A1"
V:4 treble nm="A2"
V:1
"^Frisch"!mf! G2 | !>!e3 d .c2 G2 | .A2 .c2 G2 z c | .d2 .f2 e3"^cresc." c | .d2 .f2 e2 z!f! e | %5
w: 1. Ver-|schwun- den ist die|finst'- re Nacht, die|Ler- che schlägt, der|Tag er- wacht, die|
 d>d e^f !>!gdBc | d4- d"^dim."B A>B | A4 G2 z!p! G | G3 G B2 c2 | d>e d2 z2 G2 | %10
w: Son- ne kommt mit Pran- * gen am|Him- * mel auf- ge-|gan- gen. Sie|scheint in Kö- nigs|Prunk- ge- mach, sie|
"^cresc." G3 G B2 c2 | d3 f e2 z!mf! c | d3"^cresc." c Bc Bc |!f! f>e d3 dcA | Gc cd .e2 .d2 | %15
w: schei- net durch des|Bett- lers Dach, und|was in Nacht _ ver- *|bor- gen war, das macht sie|kund * und _ of- fen-|
 c6 !fermata!z2 ||!f! !>!e2 d>e c3 G | .A2 .c2 G2 z!mf! c | d2 f2 e3 c | d2 f2 e2 z!f! e | %20
w: bar.|2. Lob sei dem Herrn und|Dank ge- bracht, der|ü- ber die- sem|Haus ge- wacht, mit|
 d>d e^f !>!gdBc | d4- dB A>B | A4 G2 z!p! G | G3 G!<(! B2 c2!<)! |!>(! d3!>)! _e d2 z G | %25
w: sei- nen heil’- gen Scha- * ren uns|gnä- * dig wollt' be-|wah- ren. Wohl|man- cher schloss die|Au- gen schwer und|
 G3 G!<(! B2 c2!<)! |!>(! d3!>)! f =e2 z!f! c | !>!d3 c Bc Bc | f>e d3 dcA | Gc cd .e2 .d2 | %30
w: öff- net sie dem|Licht nicht mehr: Drum|freu- e sich, _ wer, _|neu be- lebt, den fri- schen|Blick _ zur _ Sonn’ er-|
 c6 z2 |] %31
w: hebt!|
V:2
 G2 | e3 d c2 G2 | A2 F2 G2 x c | B2 d2 c3 c | B2 d2 c2 x c | B>B cc B2 G2 | z D B3 G ^F>G | %7
w: ||||||am Him- mel * *|
 ^F4 G2 x G | G3 G G2 A2 | B>c B2 x2 G2 | G3 G G2 G2 | G3 B c2 x c | d3 c Bc Bc | c>c c3 FEA | %14
w: |||||||
 G2 c2 c2 B2 | c6 x2 || e2 d>e c3 G | A2 F2 G2 x c | B2 d2 c3 c | B2 d2 c2 x c | B>B cc B2 G2 | %21
w: |||||||
 z D B3 G ^F>G | ^F4 G2 x G | G3 G G2 A2 | B3 c B2 x G | G3 G G2 G2 | G3 B c2 x c | d3 c Bc Bc | %28
w: uns gnä- dig * *|||||||
 c>c c3 FEA | G2 c2 c2 B2 | c6 x2 |] %31
w: |||
V:3
!mf! G2 | !>!G3 G .G2 E2 | .F2 .F2 E2 z E | .G2 .G2 G3"^cresc." G | .G2 .G2 G2 z!f! C | %5
w: 1. Ver-|schwun- den ist die|finst'- re Nacht, die|Ler- che schlägt, der|Tag er- wacht, die|
 D>d cA !>!d2 GA | B3 G D2 C>D | C4 B,2 z!p! G | G3 G G2 G2 | G>G G2 z2 G2 |"^cresc." G3 G F2 E2 | %11
w: Son- ne kommt mit Pran- gen am|Him- mel auf- ge- *|gan- gen. Sie|scheint in Kö- nigs|Prunk- ge- mach, sie|schei- net durch des|
 D3 G G2 z!mf! c | d3"^cresc." c Bc Bc |!f! A>A A3 FGF | E2 EF .G2 .F2 | E6 !fermata!z2 || %16
w: Bett- lers Dach, und|was in Nacht _ ver- *|bor- gen war, das macht sie|kund und _ of- fen-|bar.|
!f! !>!G2 G>G G3 E | .F2 .F2 E2 z!mf! E | G2 G2 G3 G | G2 G2 G2 z!f! C | D>d cA !>!d2 GA | %21
w: 2. Lob sei dem Herrn und|Dank ge- bracht, der|ü- ber die- sem|Haus ge- wacht, mit|sei- nen heil’- gen Scha- ren uns|
 B3 G D2 C>D | C4 B,2 z!p! G | G3 G!<(! G2 G2!<)! |!>(! G>G!>)! G4 z G | G3 G!<(! F2 _E2!<)! | %26
w: gnä- dig wollt' be- *|wah- ren. Wohl|man- cher schloss die|Au- gen schwer und|öff- net sie dem|
!>(! D3!>)! G G2 z!f! c | !>!d3 c Bc Bc | A>A A3 FGF | E2 EF .G2 .F2 | E6 z2 |] %31
w: Licht nicht mehr: Drum|freu- e sich, _ wer, _|neu be- lebt, den fri- schen|Blick zur _ Sonn’ er-|hebt!|
V:4
!mf! G2 | !>!C3 F .E2 C2 | .F2 .A,2 C2 z E | .G2 .B,2 C3"^cresc." E | .G2 .B,2 C2 z2 | %5
w: |||||
 z2 z D !>!B2 GE | D6 D2 | D4 G,2 z2 | z8 | z2 z!p! G G3 G |"^cresc." G,6 A,2 | B,3 D C2 z!mf! c | %12
w: die Son- ne kommt|auf- ge-|gan- gen.||sie schei- net|durch des||
 d3"^cresc." c Bc Bc |!f! A>G F3 DEF | G2 GG .G,2 .G,2 | C6 !fermata!z2 ||!f! !>!C2 F>G E3 C | %17
w: |||||
 .F2 .A,2 C2 z!mf! E | G2 B,2 C3 E | G2 B,2 C2 z2 | z2 z!f! D (!>!B2 G)E | D6 D2 | D4 G,2 z2 | z8 | %24
w: |||uns gnä- * dig|wollt' be-|wah- ren.||
 z2 z!p!!<(! G!<)! G2!>(! G2!>)! | G,6!<(! A,2!<)! |!>(! B,3!>)! D C2 z!f! c | !>!d3 c Bc Bc | %28
w: Wohl man- cher|öff- net|sie nicht mehr: *||
 A>G F3 DEF | G2 G2 .G,2 .G,2 | C6 z2 |] %31
w: |||

